public/formular-icons/operators/Plus.svg

<svg style="vertical-align:-.186ex" xmlns="http://www.w3.org/2000/svg" width="1.76ex" height="1.505ex" viewBox="0 -583 778 665" xmlns:xlink="http://www.w3.org/1999/xlink"><defs><path id="a" d="M56 237v13l14 20h299v150l1 150q10 13 19 13 13 0 20-15V270h298q15-8 15-20t-15-20H409V-68q-8-14-18-14h-4q-12 0-18 14v298H70q-14 7-14 20Z"/></defs><g stroke="currentColor" fill="currentColor" stroke-width="0"><use data-c="2B" xlink:href="#a" transform="scale(1 -1)"/></g></svg>

<svg style="vertical-align: -0.186ex" xmlns="http://www.w3.org/2000/svg" width="1.76ex" height="1.505ex" role="img" focusable="false" viewBox="0 -583 778 665" xmlns:xlink="http://www.w3.org/1999/xlink"><defs><path id="MJX-1-TEX-N-2B" d="M56 237T56 250T70 270H369V420L370 570Q380 583 389 583Q402 583 409 568V270H707Q722 262 722 250T707 230H409V-68Q401 -82 391 -82H389H387Q375 -82 369 -68V230H70Q56 237 56 250Z"></path></defs><g stroke="currentColor" fill="currentColor" stroke-width="0" transform="scale(1,-1)"><g data-mml-node="math"><g data-mml-node="mo"><use data-c="2B" xlink:href="#MJX-1-TEX-N-2B"></use></g></g></g></svg>
